public/assets/images/signature/smart-phone.svg

<svg width="164" height="164" viewBox="0 0 164 164" fill="none" xmlns="http://www.w3.org/2000/svg">
<path d="M65.1464 60.6677C64.6142 60.9481 64.1099 61.2253 63.6318 61.5C64.583 66.3692 65.2997 70.1412 68.305 81.9705L69.1972 85.4948C69.289 84.1082 69.5326 82.8143 69.9065 81.6162C67.6621 72.6627 66.5289 68.0395 65.4014 62.0068C65.3161 61.5508 65.2308 61.1048 65.1464 60.6677Z" fill="#191919"/>
<path d="M114.921 51.546C114.343 51.4534 113.765 51.3714 113.185 51.3C113.331 51.9519 113.466 52.5612 113.585 53.1024C114.5 57.2729 114.52 57.9092 116.153 64.0354C116.741 64.0469 117.318 64.0896 117.884 64.1609C116.114 57.5574 116.13 57.0417 115.186 52.7498L114.921 51.5444V51.546Z" fill="#191919"/>
<path d="M124.206 93.4414C127.918 107.524 131.079 121.408 129.49 124.232C128.617 125.786 127.427 126.893 125.854 127.615C113.491 133.289 107.446 135.539 88.1737 138.492C84.1139 139.114 83.8187 138.392 77.6031 112.746C76.4313 107.909 75.2486 103.075 74.0549 98.2434C73.1531 97.402 72.355 96.4558 71.6777 95.425C82.2754 138.231 81.7359 141.139 88.4213 140.113C107.902 137.129 114.02 134.851 126.537 129.106C128.436 128.234 129.869 126.903 130.918 125.037C132.76 121.759 130.136 109.431 125.639 92.4648C125.178 92.8166 124.699 93.1421 124.204 93.4423L124.206 93.4414Z" fill="#191919"/>
<path d="M138.814 131.331C138.72 130.893 138.545 130.078 137.839 129.983C136.968 129.866 136.644 130.674 136.538 130.94C136.519 130.989 136.501 131.039 136.478 131.079C133.112 136.899 130.345 138.516 124.835 140.818C116.684 144.223 98.2025 148.661 88.8799 149.452C77.3966 150.427 77.5008 148.7 73.1933 134.999C71.5328 129.715 62.061 96.5886 56.4735 66.9145C55.9291 67.4622 55.4863 67.9419 55.0976 68.3372C59.7207 92.5321 67.1335 121.109 72.3036 137.643C75.9617 149.34 76.8226 152.12 89.0193 151.087C98.4665 150.286 117.201 145.785 125.468 142.332C130.907 140.059 133.973 138.313 137.349 132.824C137.532 135.397 137.117 140.488 132.678 143.251C120.721 150.691 91.877 157.387 80.6643 157.263C76.2659 157.228 74.8678 155.93 73.3967 153.033C69.2368 144.842 56.5974 94.6887 51.8914 69.3408C51.31 69.1761 50.7315 69.0011 50.1562 68.816C55.0754 95.9999 68.0019 146.033 71.9346 153.775C73.7353 157.322 75.7566 158.904 80.8743 158.904C92.1886 158.904 121.221 152.312 133.544 144.643C139.425 140.984 139.343 133.794 138.815 131.332L138.814 131.331Z" fill="#191919"/>
<path d="M120.435 124.589C119.11 119.156 119.141 119.021 117.917 119.301C117.917 119.301 98.4454 123.723 97.4778 123.908C92.5734 124.843 94.3036 124.577 95.5524 131.276C95.6197 131.638 95.8689 131.833 96.2511 131.833C96.7701 131.833 97.6926 131.395 112.953 127.828C120.64 126.032 120.786 126.027 120.435 124.589ZM103.248 124.271L117.81 120.876C118.124 120.876 118.155 121.546 118.893 124.637C117.997 125.069 96.9686 130.136 96.8866 130.086C96.6922 129.974 96.5873 129.044 95.7689 126.414C95.509 125.582 96.2552 126.128 103.249 124.27L103.248 124.271Z" fill="#191919"/>
<path d="M123.087 65.764C123.788 66.1207 124.457 66.5282 125.089 66.9784C123.886 62.3287 122.676 57.6807 121.459 53.0343C121.014 52.9367 120.459 52.7842 119.783 52.6055C120.37 54.9515 122.249 62.5357 123.087 65.7632V65.764Z" fill="#191919"/>
<path d="M137.789 122.779C137.759 118.693 133.893 102.108 130.162 87.02C129.814 87.717 129.417 88.378 128.979 89.002C132.556 103.512 136.121 118.913 136.149 122.791C136.234 134.447 118.413 138.833 106.624 141.748C100.223 143.331 90.9166 145.458 84.2787 145.132C81.2299 144.984 80.2738 144.029 79.3915 142.075C74.1984 130.574 62.9529 79.7958 60.0042 64.3159L59.9271 63.9141C59.3941 64.3101 58.9136 64.6931 58.4766 65.0621C61.5581 81.0873 72.6995 131.24 77.8958 142.75C79.4817 146.26 81.7014 146.805 85.7325 146.805C92.3614 146.805 100.583 144.924 107.015 143.34C119.308 140.313 137.885 135.73 137.788 122.779H137.789Z" fill="#191919"/>
<path d="M70.1495 6.43044C64.3152 14.2131 30.3877 54.7949 26.1287 60.3003C25.617 60.9621 25.6408 61.0088 26.4952 61.1663C29.626 61.7427 32.7124 62.5258 35.826 63.1835C36.7583 63.3803 37.4947 63.3425 38.5394 73.6811C39.0781 79.0152 37.9326 84.9085 37.9982 87.517C38.0146 88.1803 37.8497 88.4108 37.2913 88.6994C34.8674 89.9515 34.555 92.6838 36.1532 94.3221C37.7891 95.999 35.2192 96.5312 34.8223 105.156C34.7608 106.494 34.6419 118.26 36.2663 118.333C36.5484 118.345 36.5623 118.078 36.6402 117.889C37.7628 115.171 34.6895 109.111 37.8547 96.701C38.1794 95.4267 38.1441 95.4505 39.3544 95.2061C39.7981 95.1167 39.912 95.2651 40.0555 95.6177C41.206 98.4525 42.0924 102.998 41.8194 107.356C41.3782 114.391 40.7804 113.996 41.4126 114.424C42.9879 115.493 44.6762 103.003 40.9723 94.9937C40.7927 94.6059 40.7788 94.3443 41.0691 93.9859C42.6148 92.077 41.9579 89.5153 39.6767 88.5649C37.958 87.8491 42.4516 81.449 38.6656 64.5914C38.4303 63.5426 38.2966 63.7304 43.7373 65.008C49.5323 66.3692 49.438 66.4298 49.6471 66.206C49.8841 65.9526 47.8029 61.8009 45.9915 55.3164C44.5926 50.3062 45.1527 50.12 47.1502 47.1303C55.3453 34.8664 81.3835 23.7226 103.431 26.7484C108.644 27.4634 117.853 29.6036 119.334 34.6532C120.289 37.9086 121.532 41.0795 122.252 44.4096C122.766 46.7958 121.177 47.4108 135.828 29.233C70.4242 5.6621 70.9777 5.3259 70.1495 6.43044ZM40.3384 91.7367C40.3171 94.2057 36.7444 94.6526 36.7739 91.9048C36.8018 89.3472 40.3606 89.1791 40.3384 91.7367Z" fill="#71B6F6"/>
<path d="M115.854 33.1493C111.622 30.2523 104.259 28.5106 96.1473 28.4901C68.3502 28.5294 47.1064 46.0332 47.6895 51.2057C48.0921 54.7711 51.5689 63.4705 52.7119 66.329C53.1293 67.3745 53.0916 65.8845 57.6836 62.393C73.2849 50.53 105.056 44.7966 120.733 50.3127C120.96 50.3931 121.091 50.3423 121.111 50.3259C120.772 47.2099 116.981 34.3137 115.854 33.1493ZM73.9467 38.8057C70.5584 40.4293 60.0058 46.5334 55.9436 49.61C52.0592 52.5513 51.7755 53.3443 51.076 53.0269C50.7505 52.8793 50.6603 52.6005 50.6546 52.143C51.1925 46.4522 73.6957 36.8287 74.3165 38.3949C74.4305 38.6819 74.1115 38.727 73.9467 38.8057Z" fill="#71B6F6"/>
<path d="M70.9756 86.7142C70.9609 78.7848 77.2978 72.538 85.2903 72.6668C92.968 72.7898 99.086 78.8758 99.1295 86.6281C99.1746 94.6952 92.7868 100.922 84.8664 100.81C77.1486 100.702 70.9896 94.5091 70.9756 86.7142ZM97.5018 86.7519C97.4657 79.7885 91.9004 74.2666 84.955 74.3027C77.9956 74.3387 72.4779 79.9517 72.5107 86.9602C72.5418 93.7531 78.2113 99.3168 85.0673 99.2823C91.9504 99.2479 97.5379 93.6178 97.5018 86.7519Z" fill="#71B6F6"/>
<path d="M101.88 79.8516C101.891 72.1231 108.136 66.4692 114.42 65.9133C123.979 65.0678 130.085 72.9078 130.015 79.9024C129.935 87.8786 123.48 94.0392 115.83 93.9909C107.941 93.9408 101.868 87.4046 101.88 79.8516ZM103.399 80.0074C103.418 86.7216 108.879 92.391 115.598 92.4468C122.801 92.5067 128.365 86.9897 128.372 79.8942C128.38 73.0817 122.831 67.2269 115.291 67.4794C108.847 67.6967 103.38 73.3195 103.399 80.0082V80.0074Z" fill="#71B6F6"/>
<path d="M82.7002 64.7816C79.6686 64.3331 75.9376 65.8575 74.5075 68.2322C73.8843 69.2679 72.6945 68.6406 73.1783 67.5327C75.157 63.0039 84.1335 62.2872 83.2578 64.4143C83.1438 64.6906 82.892 64.7587 82.7002 64.7816Z" fill="#191919"/>
<path d="M101.536 100.279C98.7383 100.186 97.7379 97.8063 97.9339 96.9896C98.0577 96.473 98.6695 95.9687 99.4419 97.4586C100.192 98.9068 102.893 99.1462 103.787 97.5513C104.364 96.5222 105.677 97.038 105.148 98.3352C104.707 99.4176 103.166 100.333 101.537 100.279L101.536 100.279Z" fill="#191919"/>
<path d="M107.538 57.4459C109.013 57.4197 112.19 57.8961 111.61 59.2458C110.973 60.73 108.594 57.5845 104.079 59.8805C102.442 60.7128 102.245 57.541 107.538 57.4451V57.4459Z" fill="#191919"/>
<path d="M83.8511 85.3571C83.7871 82.8421 85.8428 82.9381 86.6095 84.2411C87.5452 85.831 88.2446 89.38 86.53 89.7424C84.6547 90.1385 83.8896 86.8675 83.8511 85.3571Z" fill="#191919"/>
<path d="M112.937 79.2005C112.792 76.565 114.751 76.7126 115.43 77.6638C116.738 79.4957 117.324 83.2603 115.566 83.4358C115.032 83.4891 114.536 83.517 114.14 82.9512C113.326 81.7868 113.009 80.4928 112.937 79.2005Z" fill="#191919"/>
</svg>

<svg xmlns="http://www.w3.org/2000/svg" fill="none" viewBox="0 0 164 164"><path fill="#191919" d="M65.146 60.668q-.797.42-1.514.832c.951 4.87 1.668 8.641 4.673 20.47l.892 3.525c.092-1.387.336-2.68.71-3.879-2.245-8.953-3.378-13.576-4.506-19.61q-.127-.683-.255-1.338m49.775-9.122a48 48 0 0 0-1.736-.246c.146.652.281 1.261.4 1.802.915 4.17.935 4.807 2.568 10.933q.882.019 1.731.126c-1.77-6.604-1.754-7.12-2.698-11.411l-.265-1.206zm9.285 41.895c3.712 14.083 6.873 27.967 5.284 30.791-.873 1.554-2.063 2.661-3.636 3.383-12.363 5.674-18.408 7.924-37.68 10.877-4.06.622-4.355-.1-10.57-25.746a3294 3294 0 0 0-3.55-14.503 15.5 15.5 0 0 1-2.376-2.818c10.597 42.806 10.058 45.714 16.743 44.688 19.481-2.984 25.599-5.262 38.116-11.007 1.899-.872 3.332-2.203 4.381-4.069 1.842-3.278-.782-15.606-5.279-32.572q-.692.528-1.435.977z"/><path fill="#191919" d="M138.814 131.331c-.094-.438-.269-1.253-.975-1.348-.871-.117-1.195.691-1.301.957-.019.049-.037.099-.06.139-3.366 5.82-6.133 7.437-11.643 9.739-8.151 3.405-26.632 7.843-35.955 8.634-11.483.975-11.38-.752-15.687-14.453-1.66-5.284-11.132-38.41-16.72-68.084-.544.547-.987 1.027-1.375 1.422 4.623 24.195 12.035 52.772 17.206 69.306 3.658 11.697 4.519 14.477 16.715 13.444 9.447-.801 28.182-5.302 36.449-8.755 5.439-2.273 8.505-4.019 11.881-9.508.183 2.573-.232 7.664-4.671 10.427-11.957 7.44-40.801 14.136-52.014 14.012-4.398-.035-5.796-1.333-7.267-4.23-4.16-8.191-16.8-58.344-21.506-83.692q-.872-.248-1.735-.525c4.92 27.184 17.846 77.217 21.779 84.959 1.8 3.547 3.822 5.129 8.94 5.129 11.314 0 40.346-6.592 52.669-14.261 5.881-3.659 5.799-10.849 5.271-13.311z"/><path fill="#191919" d="M120.435 124.589c-1.325-5.433-1.294-5.568-2.518-5.288 0 0-19.472 4.422-20.44 4.607-4.904.935-3.173.669-1.925 7.368.068.362.317.557.7.557.518 0 1.44-.438 16.701-4.005 7.687-1.796 7.833-1.801 7.482-3.239m-17.187-.318 14.562-3.395c.314 0 .345.67 1.083 3.761-.896.432-21.924 5.499-22.006 5.449-.195-.112-.3-1.042-1.118-3.672-.26-.832.486-.286 7.48-2.144zm19.839-58.507q1.053.537 2.002 1.214a4813 4813 0 0 0-3.63-13.944c-.445-.097-1-.25-1.676-.428.587 2.346 2.466 9.93 3.304 13.157z"/><path fill="#191919" d="M137.789 122.779c-.03-4.086-3.896-20.671-7.627-35.759a15.5 15.5 0 0 1-1.183 1.982c3.577 14.51 7.142 29.911 7.17 33.789.085 11.656-17.736 16.042-29.525 18.957-6.401 1.583-15.707 3.71-22.345 3.384-3.05-.148-4.005-1.103-4.888-3.057-5.193-11.501-16.438-62.28-19.387-77.76l-.077-.4c-.533.395-1.013.778-1.45 1.147C61.558 81.087 72.7 131.24 77.896 142.75c1.586 3.51 3.805 4.055 7.837 4.055 6.628 0 14.85-1.881 21.282-3.465 12.293-3.027 30.87-7.61 30.773-20.561z"/><path fill="#71b6f6" d="M70.15 6.43c-5.835 7.783-39.762 48.365-44.021 53.87-.512.662-.488.709.366.866 3.131.577 6.217 1.36 9.331 2.018.932.196 1.669.159 2.713 10.497.54 5.334-.606 11.228-.54 13.836.016.663-.15.894-.708 1.182-2.424 1.252-2.736 3.985-1.138 5.623 1.636 1.677-.934 2.21-1.33 10.834-.062 1.338-.181 13.104 1.443 13.177.282.012.296-.255.374-.444 1.123-2.718-1.95-8.778 1.215-21.188.324-1.274.29-1.25 1.5-1.495.443-.09.557.06.7.412 1.151 2.835 2.037 7.38 1.764 11.738-.44 7.035-1.039 6.64-.406 7.068 1.575 1.069 3.263-11.421-.44-19.43-.18-.388-.194-.65.096-1.008 1.546-1.909.889-4.47-1.392-5.421-1.719-.716 2.775-7.116-1.011-23.974-.236-1.048-.37-.86 5.071.417 5.795 1.361 5.701 1.422 5.91 1.198.237-.253-1.844-4.405-3.655-10.89-1.4-5.01-.84-5.196 1.158-8.186 8.195-12.264 34.234-23.407 56.281-20.382 5.213.715 14.422 2.856 15.903 7.905.955 3.256 2.198 6.427 2.918 9.757.514 2.386-1.075 3 13.576-15.177C70.424 5.663 70.978 5.326 70.15 6.43M40.338 91.737c-.02 2.469-3.594 2.916-3.564.168.028-2.558 3.587-2.726 3.564-.168"/><path fill="#71b6f6" d="M115.854 33.15c-4.232-2.898-11.595-4.64-19.707-4.66-27.797.04-49.04 17.543-48.457 22.716.402 3.565 3.879 12.264 5.022 15.123.417 1.046.38-.444 4.972-3.936 15.6-11.863 47.372-17.596 63.049-12.08.227.08.358.03.378.013-.339-3.116-4.13-16.012-5.257-17.177m-41.907 5.656c-3.389 1.623-13.941 7.727-18.003 10.804-3.885 2.941-4.169 3.734-4.868 3.417-.325-.148-.416-.427-.421-.884.538-5.69 23.04-15.314 23.662-13.748.114.287-.205.332-.37.41m-2.971 47.91c-.015-7.93 6.322-14.176 14.314-14.047 7.678.123 13.796 6.209 13.84 13.961.045 8.067-6.343 14.294-14.264 14.182-7.717-.108-13.876-6.3-13.89-14.096m26.526.038c-.036-6.963-5.602-12.485-12.547-12.45-6.96.037-12.477 5.65-12.444 12.658.03 6.793 5.7 12.357 12.556 12.322 6.883-.034 12.47-5.664 12.435-12.53m4.378-6.9c.011-7.729 6.256-13.383 12.54-13.939 9.559-.845 15.665 6.995 15.595 13.99-.08 7.976-6.535 14.136-14.185 14.088-7.889-.05-13.962-6.586-13.95-14.14m1.519.155c.019 6.715 5.48 12.384 12.199 12.44 7.203.06 12.767-5.457 12.774-12.553.008-6.812-5.541-12.667-13.081-12.415-6.444.218-11.911 5.84-11.892 12.53z"/><path fill="#191919" d="M82.7 64.782c-3.031-.449-6.762 1.076-8.193 3.45-.623 1.036-1.812.409-1.329-.7 1.979-4.528 10.956-5.245 10.08-3.118-.114.277-.366.345-.558.368m18.836 35.497c-2.798-.093-3.798-2.473-3.602-3.29.124-.516.736-1.02 1.508.47.75 1.448 3.451 1.687 4.345.092.577-1.029 1.89-.513 1.361.784-.441 1.083-1.982 1.998-3.611 1.944zm6.002-42.833c1.475-.026 4.652.45 4.072 1.8-.637 1.484-3.016-1.662-7.531.634-1.637.833-1.834-2.339 3.459-2.435M83.851 85.357c-.064-2.515 1.992-2.419 2.758-1.116.936 1.59 1.636 5.139-.079 5.501-1.875.396-2.64-2.874-2.679-4.385m29.086-6.157c-.145-2.635 1.814-2.487 2.493-1.536 1.308 1.832 1.894 5.596.136 5.772-.534.053-1.03.081-1.426-.485-.814-1.164-1.131-2.458-1.203-3.75"/></svg>
